X: 1
T: the Grand Old Duke of York
R: march
Z: 2010 John Chambers <jc:trillian.mit.edu>
M: 2/4
L: 1/16
K: G
B3A \
| "G"G2D2 B,2D2 | G6 G2 | "D7"A2A2 A2A2 | A6 A2 \
| "G"B2B2 B2BB | "C"c2cc c2cc | "G"B2G2 "D7"A2F2 | "G"G4 z2 ||
B4 \
| "G"G2GG G2GG | G6 G2 | "D7"A2AA A2AA | A6 A2 \
| "G"B2BB B2B2 | "C"c2c2 c2cc | "G"B2G2 "D7"A2F2 | "G"G4 |]
